X:1
T:S'erge sopra le sfere
T:Giammateo Asola
T:Source : Madrigali a due voci---Venetia---G.Vincenti---1587. Editor : André Vierendeels (19/04/17).
T:Notes : Original clefs : C3, C3 Editorial accidentals above the staff "Fuga di mezo tempo all'unisono"
T:S'erge sopra le sfere
T:©
T:©
T:©
C:Giammateo Asola
Z:©
%%score [ 1 2 ]
L:1/8
Q:1/4=120
M:2/2
K:C
V:1 treble-8 nm="Tenor 1" snm="T 1"
V:2 treble-8 nm="Tenor 2" snm="T 2"
V:1
 G4 B2 c2 | d4 G2 g2- | g2 f2 g4 | d4 G4 | B3 c d2 e2 | d4 G2 g2- | g2 f2 g2 c2- | c2 d2 e4 | %8
w: S'er- ge so-|pra le sfe-|* re ce-|le- sti|que _ _ sta|fia- * *|* * ma, e|_ spar- gen-|
 A2 B2 c2 e2 | e2 d2 e2 g2- | g2 f2 g4 | z2 d2 e2 c2 | d2 B2 A4 | G4 z2 c2 | d2 d2 e2 g2 | f4 e4 | %16
w: do le sue fa-|vil- le al- te-|* * re,|tut- ti be-|a- t'in- fiam-|ma, e|col suo san- to|ze- lo,|
 z2 g2 f2 d2 | e2 e2 d4 | c4 z2 g2 | f2 d2 e2 e2 | d4 c4 | z2 G2 A2 c2 | c2 B2 cdec | d4 e2 g2 | %24
w: ac- cen- d'il|Re del cie-|lo, ac-|cen- d'il Re del|cie- lo,|e'n lui con|no- va for- * * *|* ma, e'n|
 g2 f2 g2 e2 | d4 e2 c2 | c2 B2 c2 e2 | d4 c4 | G2 G2 A2 c2- | c2 B2 c4 | z2 g2 g2 g2 | %31
w: lui con no- va|for- ma, lo|spir- to de gl'a-|man- ti|suoi tras- for- *|* * ma,|lo spir- to|
 e2 e2 c2 G2 | A2 c2 c2 B2 | c2 A2 G2 G2 | c4 d4 | e2 g4 f2 | g2 c2 d2 d2 | e2 g2 g2 f2 | %38
w: de gl'a- man- ti|suoi, lo spir- to|de gl'a- man- ti|suoi, tras-|for- * *|ma, lo spir- to|de gl'a- man- ti|
 g2 e2 d4 | G4 z2 G2 | d2 d2 e2 g2 | g2 f2 g2 e2 | d4 c2 c2 | f2 f2 e2 c2 | d2 d2 c2 A2 | %45
w: suoi tras- for-|ma, lo|spir- to de gl'a-|man- ti suoi tras-|for- ma, lo|spir- to de gl'a-|man- ti suoi tras-|
 B3 A/G/ A4 | G2 g4 f2 | g2 G2 A4 | G8 |] %49
w: for- * * *|ma, tras- *|for- * *|ma.|
V:2
 z8 | G4 B2 c2 | d4 G2 g2- | g2 f2 g4 | d4 G4 | B3 c d2 e2 | d4 G2 g2- | g2 f2 g2 c2- | c2 d2 e4 | %9
w: |S'er- ge so-|pra le sfe-|* re ce-|le- sti|que _ _ sta|fiam- * *|* * ma, e|_ spar- gen-|
 A2 B2 c2 e2 | e2 d2 e2 g2- | g2 f2 g4 | z2 d2 e2 c2 | d2 B2 A4 | G4 z2 c2 | d2 d2 e2 g2 | f4 e4 | %17
w: do le sue fa-|vil- le al- te-|* * re,|tut- ti be-|a- t'in- fiam-|ma, e|col suo san- to|ze- lo,|
 z2 g2 f2 d2 | e2 e2 d4 | c4 z2 g2 | f2 d2 e2 e2 | d4 c4 | z2 G2 A2 c2 | c2 B2 cdec | d4 e2 g2 | %25
w: ac- cen- d'il|Re del cie-|lo, ac-|cen- d'il Re del|cie- lo,|e'n lui con|no- va for- * * *|* ma, e'n|
 g2 f2 g2 e2 | d4 e2 c2 | c2 B2 c2 e2 | d4 c4 | G2 G2 A2 c2- | c2 B2 c4 | z2 g2 g2 g2 | %32
w: lui con no- va|for- ma, lo|spir- to de gl'a-|man- ti|suoi tras- for- *|* * ma,|lo spir- to|
 e2 e2 c2 G2 | A2 c2 c2 B2 | c2 A2 G2 G2 | c4 d4 | e2 g4 f2 | g2 c2 d2 d2 | e2 g2 g2 f2 | %39
w: de gl'a- man- ti|suoi, lo spir- to|de gl'a- man- ti|suoi tras-|for- * *|ma, lo spir- to|de gl'a- man- ti|
 g2 e2 d4 | G4 z2 G2 | d2 d2 e2 g2 |"^#" g2 f2 g2 e2 | d4 c2 c2 | f2 f2 e2 c2 | d2 d2 c2 A2 | %46
w: suoi tras- for-|ma, lo|spir- to de gl'a-|man- ti suoi tras-|for- ma, lo|spir- to de gl'a-|man- ti suoi tras-|
 B3 A/G/ A4 | G8- | G8 |] %49
w: for- * * *|ma.|_|

